X: 1203
T: Kanatlarım Olsaydı
C: Şerif Muhittin Targan
O: Turkey
F: http://compmusic.upf.edu/node/140
N: nihavent--sazeseri--nimsofyan--kanatlarim_olsaydi--serif_muhittin_targan
N: makam= nihavent
N: form= sazeseri
N: usul= nimsofyan = 2/4
M: 2/4
L: 1/16
K: C _B _e  
Q: 1/4=120
%%MIDI tuningsystem comma53
D2d2 (3e^fed2  | d'2d2 (3e^fed2  | d'2d2 (3e^fed2  | \
w:   |   |   | 
d'2c'2 bag^f  | 
w:   | 
g2d2 (3e^fed2  | d2c2 {e}d2c2  | (3cdcB2 {d}c2B2  | \
w:   |   |   | 
(3BcBAB dcBA  | 
w:   | 
G4 z4  | D2d2 (3e^fed2  | d'2d2 (3e^fed2  | \
w:   |   |   | 
d'2d2 (3e^fed2  | d'2c'2 bag^f  | 
w:   |   | 
g2d2 (3e^fed2  | d2c2 {e}d2c2  | (3cdcB2 {d}c2B2  | \
w:   |   |   | 
(3BcBAB dcBA  | 
w:   | 
G4 z4  | z2f2 (3gagf2  | b2f2 (3gagf2  | \
w:   |   |   | 
b2f2 (3gagf2  | d'2c'2 bag^f  | 
w:   |   | 
g2f2 {a}g2f2  | (3fgfe2 {g}f2e2  | (3efed2 {f}e2d2  | \
w:   |   |   | 
edcd (3cdcBc  | 
w:   | 
d4 z4  | z2f2 (3gagf2  | b2f2 (3gagf2  | \
w:   |   |   | 
b2f2 (3gagf2  | d'2c'2 bag^f  | 
w:   |   | 
g2f2 {a}g2f2  | (3fgfe2 {g}f2e2  | (3efed2 {f}e2d2  | \
w:   |   |   | 
edcd (3cdcBc  | 
w:   | 
d4 z4  | D2d2 (3e^fed2  | d'2d2 (3e^fed2  | \
w:   |   |   | 
d'2d2 (3e^fed2  | d'2c'2 bag^f  | 
w:   |   | 
g2d2 (3e^fed2  | d2c2 {e}d2c2  | (3cdcB2 {d}c2B2  | \
w:   |   |   | 
(3BcBAB dcBA  | 
w:   | 
G4 z4  | D2d2 (3e^fed2  | d'2d2 (3e^fed2  | \
w:   |   |   | 
d'2d2 (3e^fed2  | d'2c'2 bag^f  | 
w:   |   | 
g2d2 (3e^fed2  | d2c2 {e}d2c2  | (3cdcB2 {d}c2B2  | \
w:   |   |   | 
(3BcBAB dcBA  | 
w:   | 
G4 z4  | G2D2 =E/^F/E/F/D2  | =B2G2 d2B2  | \
w:   |   |   | 
g2d2 =b2g2  | d'c'/d'/c'=b g'2d'2  | 
w:   |   | 
g2d2 =e/^f/e/f/g2  | =b2g2 d'2b2  | g'd'=b2 g2b2  | \
w:   |   |   | 
d'=bd'2 g'2d'2  | 
w:   | 
g'2d'2 d'=b/d'/bg  | d'2a2 a^f/a/fd  | \
w:   |   | 
a^f/a/fd dc/d/c=B  | 
w:   | 
dc=BA G4  | g'2d'2 d'=b/d'/bg  | d'2a2 a^f/a/fd  | \
w:   |   |   | 
a^f/a/fd dc/d/c=B  | 
w:   | 
dc=BA G4  | D2d2 (3e^fed2  | d'2d2 (3e^fed2  | \
w:   |   |   | 
d'2d2 (3e^fed2  | 
w:   | 
d'2c'2 bag^f  | g2d2 (3e^fed2  | d2c2 {e}d2c2  | \
w:   |   |   | 
(3cdcB2 {d}c2B2  | 
w:   | 
(3BcBAB dcBA  | G4 z4  | D2d2 (3e^fed2  | \
w:   |   |   | 
d'2d2 (3e^fed2  | 
w:   | 
d'2d2 (3e^fed2  | d'2c'2 bag^f  | g2d2 (3e^fed2  | \
w:   |   |   | 
d2c2 {e}d2c2  | 
w:   | 
(3cdcB2 {d}c2B2  | (3BcBAB dcBA  | G4 z4  | |


